imgs/l.svg

<?xml version="1.0" encoding="UTF-8" standalone="no"?>
<!-- Created with Inkscape (http://www.inkscape.org/) -->

<svg
   width="35"
   height="46"
   viewBox="0 0 9.2604165 12.170834"
   version="1.1"
   id="svg2583"
   xmlns="http://www.w3.org/2000/svg"
   xmlns:svg="http://www.w3.org/2000/svg">
  <defs
     id="defs2580" />
  <g
     id="layer1">
    <g
       id="g20709"
       transform="matrix(0.78546811,0,0,0.78546811,1.0192775,4.7053631)">
      <path
         style="fill:none;stroke:#1f1a17;stroke-width:0.529167;stroke-linecap:round;stroke-linejoin:miter;stroke-miterlimit:4;stroke-dasharray:none;stroke-opacity:1"
         d="M 3.7459906,7.3158702 5.5024381,9.0723177"
         id="path17647" />
      <path
         style="fill:none;stroke:#1f1a17;stroke-width:0.529167;stroke-linecap:round;stroke-linejoin:miter;stroke-miterlimit:4;stroke-dasharray:none;stroke-opacity:1"
         d="M 5.5024381,7.412498 3.7459906,9.1689455"
         id="path17647-3" />
    </g>
    <path
       id="123456"
       class="fil0"
       d="m 0.15237734,3.029127 c 0.41124982,0.8525007 1.13062816,1.278128 2.16188136,1.278128 0.2743756,0 0.5715635,-0.029688 0.8928153,-0.090625 L 5.8630145,3.2447518 c 0.3565631,-0.1296879 0.7053131,-0.195313 1.0425034,-0.195313 0.4256272,0 0.8271907,0.1078127 1.2075028,0.3221884 0.6518777,0.3709379 0.999064,0.8965645 1.0375027,1.5756282 C 8.5720833,4.1038166 7.8673947,3.6813141 7.0355182,3.6813141 6.457393,3.6813141 5.73489,3.875377 4.8658264,4.2650643 5.3205155,4.6516285 5.5323912,5.0710037 5.5017656,5.5231925 5.4342651,5.7297553 5.3042648,5.9113177 5.1083276,6.0660064 4.870827,6.2538193 4.7117648,6.4135075 4.6314505,6.5435079 4.6764508,6.7122583 4.8386378,6.939134 5.1211387,7.2225716 5.37489,7.4775722 5.5017656,7.7028856 5.5017656,7.9000743 5.4148897,8.7247647 4.7083252,9.1628909 3.3817599,9.2144529 4.2170733,8.6807009 4.6345752,8.2694511 4.6345752,7.9766367 c 0,-0.018751 -0.00159,-0.0375 -0.00468,-0.05625 C 4.6411369,7.7950738 4.5011432,7.566636 4.2089532,7.2350734 3.918327,6.9016349 3.7770765,6.6716352 3.7883266,6.5450718 3.7980103,6.4931968 3.9314529,6.3369463 4.1914537,6.0753835 4.4498934,5.8141328 4.5977055,5.5560064 4.6345805,5.3025699 4.5977055,4.9363178 4.393643,4.6953803 4.0227051,4.5813184 3.497703,4.839444 2.9339526,4.9675704 2.3333272,4.9675704 0.92957502,4.7391323 0.20207138,4.0928817 0.15238528,3.0291296 Z"
       style="clip-rule:evenodd;fill:#1f1a17;fill-rule:nonzero;stroke-width:0.264583;image-rendering:optimizeQuality;shape-rendering:geometricPrecision;text-rendering:geometricPrecision" />
  </g>
</svg>

<svg width="35" height="46" viewBox="0 0 9.26 12.171" xmlns="http://www.w3.org/2000/svg">
    <path style="fill:none;stroke:#1f1a17;stroke-width:.529167;stroke-linecap:round;stroke-linejoin:miter;stroke-miterlimit:4;stroke-dasharray:none;stroke-opacity:1" d="m3.746 7.316 1.756 1.756M5.502 7.412 3.746 9.17" transform="matrix(.78547 0 0 .78547 1.02 4.705)"/>
    <path class="fil0" d="M.152 3.03c.412.852 1.131 1.277 2.162 1.277.275 0 .572-.03.893-.09l2.656-.972c.357-.13.705-.196 1.043-.196.425 0 .827.108 1.207.323.652.37 1 .896 1.038 1.575-.579-.843-1.284-1.266-2.115-1.266-.579 0-1.301.194-2.17.584.455.387.666.806.636 1.258a1.138 1.138 0 0 1-.394.543c-.237.188-.396.348-.477.478.045.168.208.395.49.679.254.255.38.48.38.677-.086.825-.793 1.263-2.12 1.314.836-.533 1.254-.945 1.254-1.237a.345.345 0 0 0-.005-.057c.011-.125-.129-.353-.421-.685-.29-.333-.432-.563-.42-.69.009-.052.142-.208.402-.47.259-.26.407-.519.444-.772-.037-.367-.241-.608-.612-.722a3.779 3.779 0 0 1-1.69.387C.93 4.739.203 4.093.153 3.029Z" style="clip-rule:evenodd;fill:#1f1a17;fill-rule:nonzero;stroke-width:.264583;image-rendering:optimizeQuality;shape-rendering:geometricPrecision;text-rendering:geometricPrecision"/>
</svg>
